svg/US/NM.svg

<?xml version="1.0" encoding="UTF-8" standalone="no"?>
<svg width="90px" height="65px" viewBox="0 0 90 65" version="1.1" xmlns="http://www.w3.org/2000/svg" xmlns:xlink="http://www.w3.org/1999/xlink">
    <!-- Generator: Sketch 3.7.2 (28276) - http://www.bohemiancoding.com/sketch -->
    <title>New Mexico</title>
    <desc>Created with Sketch.</desc>
    <defs></defs>
    <g id="Page-1" stroke="none" stroke-width="1" fill="none" fill-rule="evenodd">
        <g id="New-Mexico">
            <g id="Page-1">
                <path d="M80,65 L10,65 C4.477,65 0,60.523 0,55 L0,10 C0,4.477 4.477,0 10,0 L80,0 C85.523,0 90,4.477 90,10 L90,55 C90,60.523 85.523,65 80,65" id="Fill-1" fill="#FFB200"></path>
                <path d="M45.5,27.0835 C48.486,27.0835 50.917,29.5135 50.917,32.5005 C50.917,35.4865 48.486,37.9165 45.5,37.9165 C38.343,37.9165 38.34,27.0835 45.5,27.0835 M65,33.0005 L53.058,33.0005 C53.092,32.4815 53.092,32.5185 53.058,32.0005 L65,32.0005 C65.553,32.0005 66,31.5525 66,31.0005 C66,30.4475 65.553,30.0005 65,30.0005 C64.684,30.0005 52.969,29.9635 52.675,30.0655 C52.544,29.6825 52.388,29.3105 52.2,28.9575 L62,28.9575 C62.528,28.9575 62.957,28.5285 62.957,28.0005 C62.957,27.4715 62.528,27.0425 62,27.0425 C61.71,27.0425 51.235,27.0365 50.946,27.0535 C50.963,26.7695 50.957,16.2845 50.957,16.0005 C50.957,15.4715 50.528,15.0425 50,15.0425 C49.472,15.0425 49.043,15.4715 49.043,16.0005 L49.043,25.7995 C48.69,25.6125 48.318,25.4555 47.935,25.3245 C48.036,25.0315 48,13.3155 48,13.0005 C48,12.4475 47.553,12.0005 47,12.0005 C46.447,12.0005 46,12.4475 46,13.0005 L46,24.9415 C45.481,24.9075 45.519,24.9075 45,24.9415 L45,13.0005 C45,12.4475 44.552,12.0005 44,12.0005 C43.448,12.0005 43,12.4475 43,13.0005 C43,13.3145 42.963,25.0305 43.066,25.3245 C42.682,25.4555 42.311,25.6125 41.958,25.7995 L41.958,16.0005 C41.958,15.4715 41.529,15.0425 41,15.0425 C40.471,15.0425 40.042,15.4715 40.042,16.0005 C40.042,16.2835 40.037,26.7705 40.053,27.0535 C39.77,27.0365 29.284,27.0425 29,27.0425 C28.471,27.0425 28.042,27.4715 28.042,28.0005 C28.042,28.5285 28.471,28.9575 29,28.9575 L38.8,28.9575 C38.612,29.3105 38.455,29.6825 38.325,30.0655 C38.031,29.9635 26.315,30.0005 26,30.0005 C25.448,30.0005 25,30.4475 25,31.0005 C25,31.5525 25.448,32.0005 26,32.0005 L37.942,32.0005 C37.908,32.5185 37.908,32.4815 37.942,33.0005 L26,33.0005 C25.448,33.0005 25,33.4475 25,34.0005 C25,34.5525 25.448,35.0005 26,35.0005 C26.315,35.0005 38.031,35.0365 38.325,34.9345 C38.455,35.3185 38.612,35.6895 38.8,36.0425 L29,36.0425 C28.471,36.0425 28.042,36.4715 28.042,37.0005 C28.042,37.5285 28.471,37.9575 29,37.9575 C29.284,37.9575 39.77,37.9625 40.053,37.9465 C40.036,38.2355 40.042,48.7105 40.042,49.0005 C40.042,49.5285 40.471,49.9575 41,49.9575 C41.529,49.9575 41.958,49.5285 41.958,49.0005 L41.958,39.1995 C42.311,39.3875 42.682,39.5445 43.066,39.6745 C42.963,39.9685 43,51.6835 43,52.0005 C43,52.5525 43.448,53.0005 44,53.0005 C44.552,53.0005 45,52.5525 45,52.0005 L45,40.0575 C45.519,40.0915 45.481,40.0915 46,40.0575 L46,52.0005 C46,52.5525 46.447,53.0005 47,53.0005 C47.553,53.0005 48,52.5525 48,52.0005 C48,51.6835 48.037,39.9685 47.934,39.6745 C48.318,39.5445 48.69,39.3875 49.043,39.1995 L49.043,49.0005 C49.043,49.5285 49.472,49.9575 50,49.9575 C50.528,49.9575 50.957,49.5285 50.957,49.0005 C50.957,48.7105 50.963,38.2355 50.946,37.9465 C51.235,37.9635 61.71,37.9575 62,37.9575 C62.528,37.9575 62.957,37.5285 62.957,37.0005 C62.957,36.4715 62.528,36.0425 62,36.0425 L52.2,36.0425 C52.387,35.6895 52.544,35.3185 52.675,34.9345 C52.968,35.0365 64.683,35.0005 65,35.0005 C65.553,35.0005 66,34.5525 66,34.0005 C66,33.4475 65.553,33.0005 65,33.0005" id="Fill-3" fill="#CF1B2B"></path>
            </g>
        </g>
    </g>
</svg>

<svg width="90" height="65" viewBox="0 0 90 65" xmlns="http://www.w3.org/2000/svg"><title>New Mexico</title><g fill="none" fill-rule="evenodd"><path d="M80 65H10C4.477 65 0 60.523 0 55V10C0 4.477 4.477 0 10 0h70c5.523 0 10 4.477 10 10v45c0 5.523-4.477 10-10 10" fill="#FFB200"/><path d="M45.5 27.084a5.424 5.424 0 0 1 5.417 5.417 5.423 5.423 0 0 1-5.417 5.416c-7.157 0-7.16-10.834 0-10.834M65 33.002H53.058c.034-.52.034-.482 0-1H65a1 1 0 1 0 0-2c-.316 0-12.031-.038-12.325.064a7.556 7.556 0 0 0-.475-1.108H62a.958.958 0 0 0 0-1.915c-.29 0-10.765-.006-11.054.011.017-.284.011-10.768.011-11.053a.958.958 0 1 0-1.914 0v9.8a7.666 7.666 0 0 0-1.108-.476C48.036 25.032 48 13.316 48 13a1 1 0 1 0-2 0v11.942c-.519-.035-.481-.035-1 0V13a1 1 0 1 0-2 0c0 .314-.037 12.03.066 12.324a7.619 7.619 0 0 0-1.108.474V16a.958.958 0 0 0-1.916 0c0 .284-.005 10.77.011 11.053-.283-.017-10.769-.01-11.053-.01a.958.958 0 0 0 0 1.915h9.8a7.45 7.45 0 0 0-.475 1.108C38.031 29.963 26.315 30 26 30a1 1 0 1 0 0 2h11.942c-.034.519-.034.481 0 1H26a1 1 0 1 0 0 2c.315 0 12.031.036 12.325-.066.13.385.287.756.475 1.108H29a.958.958 0 0 0 0 1.916c.284 0 10.77.005 11.053-.011-.017.288-.011 10.764-.011 11.053a.958.958 0 0 0 1.916 0v-9.8c.353.188.724.344 1.108.474-.103.294-.066 12.01-.066 12.327a1 1 0 0 0 2 0V40.056c.519.035.481.035 1 0v11.944a1 1 0 1 0 2 0c0-.317.037-12.032-.066-12.326.384-.13.756-.287 1.109-.475V49a.958.958 0 0 0 1.914 0c0-.29.006-10.764-.011-11.053.289.017 10.764.01 11.054.01a.958.958 0 0 0 0-1.915h-9.8c.187-.352.344-.724.475-1.108.293.102 12.008.067 12.325.067a1 1 0 1 0 0-2" fill="#CF1B2B"/></g></svg>
